images/icons/loupe.svg

<svg fill="#fff" height="24pt" viewBox="0 0 24 24" width="24pt" xmlns="http://www.w3.org/2000/svg"><path d="m10.570312 0c-5.828124 0-10.570312 4.742188-10.570312 10.570312 0 5.828126 4.742188 10.566407 10.570312 10.566407 5.828126 0 10.566407-4.738281 10.566407-10.566407 0-5.828124-4.738281-10.570312-10.566407-10.570312zm0 19.1875c-4.753906 0-8.617187-3.867188-8.617187-8.617188 0-4.753906 3.863281-8.617187 8.617187-8.617187 4.75 0 8.617188 3.863281 8.617188 8.617187 0 4.75-3.867188 8.617188-8.617188 8.617188zm0 0"/><path d="m23.714844 22.335938-5.59375-5.59375c-.382813-.382813-1-.382813-1.378906 0-.382813.378906-.382813.996093 0 1.378906l5.59375 5.59375c.1875.191406.4375.285156.6875.285156s.5-.09375.691406-.285156c.378906-.382813.378906-1 0-1.378906zm0 0"/></svg>

<?xml version="1.0" encoding="UTF-8"?>
<svg xmlns="http://www.w3.org/2000/svg" xmlns:xlink="http://www.w3.org/1999/xlink" width="24pt" height="24pt" viewBox="0 0 24 24" version="1.1" fill="#fff">
<g id="surface1">
<path  d="M 10.570312 0 C 4.742188 0 0 4.742188 0 10.570312 C 0 16.398438 4.742188 21.136719 10.570312 21.136719 C 16.398438 21.136719 21.136719 16.398438 21.136719 10.570312 C 21.136719 4.742188 16.398438 0 10.570312 0 Z M 10.570312 19.1875 C 5.816406 19.1875 1.953125 15.320312 1.953125 10.570312 C 1.953125 5.816406 5.816406 1.953125 10.570312 1.953125 C 15.320312 1.953125 19.1875 5.816406 19.1875 10.570312 C 19.1875 15.320312 15.320312 19.1875 10.570312 19.1875 Z M 10.570312 19.1875 "/>
<path  d="M 23.714844 22.335938 L 18.121094 16.742188 C 17.738281 16.359375 17.121094 16.359375 16.742188 16.742188 C 16.359375 17.121094 16.359375 17.738281 16.742188 18.121094 L 22.335938 23.714844 C 22.523438 23.90625 22.773438 24 23.023438 24 C 23.273438 24 23.523438 23.90625 23.714844 23.714844 C 24.09375 23.332031 24.09375 22.714844 23.714844 22.335938 Z M 23.714844 22.335938 "/>
</g>
</svg>
